packages/core/assets/Icons/info_i.svg

<svg viewBox="0 0 20 20" fill="none" xmlns="http://www.w3.org/2000/svg">
<path d="M9.99998 5.83333C9.54165 5.83333 9.14929 5.67014 8.8229 5.34375C8.49651 5.01736 8.33331 4.625 8.33331 4.16667C8.33331 3.70833 8.49651 3.31597 8.8229 2.98958C9.14929 2.66319 9.54165 2.5 9.99998 2.5C10.4583 2.5 10.8507 2.66319 11.1771 2.98958C11.5035 3.31597 11.6666 3.70833 11.6666 4.16667C11.6666 4.625 11.5035 5.01736 11.1771 5.34375C10.8507 5.67014 10.4583 5.83333 9.99998 5.83333ZM9.99998 17.5C9.65276 17.5 9.35762 17.3785 9.11456 17.1354C8.87151 16.8924 8.74998 16.5972 8.74998 16.25V8.75C8.74998 8.40278 8.87151 8.10764 9.11456 7.86458C9.35762 7.62153 9.65276 7.5 9.99998 7.5C10.3472 7.5 10.6423 7.62153 10.8854 7.86458C11.1285 8.10764 11.25 8.40278 11.25 8.75V16.25C11.25 16.5972 11.1285 16.8924 10.8854 17.1354C10.6423 17.3785 10.3472 17.5 9.99998 17.5Z" fill="currentColor"/>
</svg>

<svg xmlns="http://www.w3.org/2000/svg" width="20" height="20" fill="none" viewBox="0 0 20 20">
  <path fill="#201F1F" d="M10 5.833c-.458 0-.85-.163-1.177-.49a1.605 1.605 0 0 1-.49-1.176c0-.459.164-.851.49-1.177.326-.327.719-.49 1.177-.49.458 0 .85.163 1.177.49.327.326.49.718.49 1.177 0 .458-.163.85-.49 1.177-.326.326-.719.49-1.177.49ZM10 17.5c-.347 0-.642-.122-.885-.365a1.205 1.205 0 0 1-.365-.885v-7.5c0-.347.122-.642.365-.885S9.653 7.5 10 7.5s.642.122.885.365c.244.243.365.538.365.885v7.5c0 .347-.121.642-.365.885A1.205 1.205 0 0 1 10 17.5Z"/>
</svg>
